X:1
T:Mrs Young's Strathspey -- Banff
T:Mrs Young's Strathspey -- Banff
T:William Marshall
C:William Marshall
%%score { 1 2 }
L:1/8
M:4/4
K:C
V:1 treble 
V:2 bass 
V:1
 E | C<cc>E{E} G2 (G>E) | C<cc>E{E} D2 (D>E) | C<cc>E c>d{cd} e<d | e/d/c/A/ c>E{E} D2 D :| e/f/ | %6
 gc a/g/f/e/ gc a/g/f/e/ | cg a/g/f/e/{e} d2 d e/f/ | gc a/g/f/e/ c<ge<g | %9
 f/e/f/g/ a/g/f/e/{e} d2 d e/f/ | gc a/g/f/e/ gc a/g/f/e/ | cg a/g/f/e/{e} d2 d e/f/ | %12
 g<cf<d e<c{cd}e>d | c<Ac>E{E} D2 D |] %14
V:2
 z | C,2 C,2 C,2 C,2 | C,2 C,2 G,,2 G,,2 | C,2 C,2 C,2 C,2 | C,2 C,2 G,,2 G,, :| z | C2 C2 C2 C2 | %7
 C2 C2 G,2 G,2 | C2 C2 C2 C2 | B,2 C2 G,2 G,2 | C2 C2 C2 C2 | C2 C2 G,2 G,2 | C2 G,2 C2 C2 | %13
 F,2 C,2 G,2 G, |] %14

